X:1
T:Title
%%score [ 1 2 3 4 ]
L:1/8
Q:1/4=120
M:4/4
K:Eb
V:1 treble nm="Soprano" snm="S"
V:2 treble nm="Alto" snm="A"
V:3 treble-8 nm="Tenor" snm="T"
V:4 bass nm="Bass" snm="B"
V:1
 z8 | z8 | z2 B4 B2 | (d4 c2) d2 | e4 d3 e | f2 e4 d2 | e4 z4 | z2 A4 F2 | B6 B2 | B8 | B8 || %11
w: ||Ky- ri-|e _ e-|lei- * *||son,|Ky- ri-|e e-|lei-|son.|
 z2 B2 B2 B2 | (G3 A) B2 B2 | G2 E2 F4 | G4 F3 G | A2 F2 GABc | B3 A/G/ F2 z2 | z4 e4 | d4 z2 e2 | %19
w: Chri- ste e-|lei- * son, Chri-|ste e- lei-||son, e- lei- * * *|* * * son.|Chri-|ste, Chri-|
 d2 B2 e4 | e2 d2 c4 | d8 || z8 | z8 | z2 e4 d2 | B2 e2 (c2 d2) | e4 z4 | z4 B3 c | d2 B2 (e2 c2) | %29
w: ste e- lei-||son.|||Ky- ri-|e e- lei- *|son,|Ky- ri-|e e- lei- *|
 d4 f3 e | d2 e2 (d2 c2) | d2 B4 B2 | A6 A2 | (G3 A/G/ F4) | G8 |] %35
w: son, Ky- ri-|e e- lei- *|son, Ky- ri-|e e-|lei- * * *|son.|
V:2
 z2 E4 D2 | F2 ED C3 D | EF E2 G2 (FE) | F3 G A2 A2 | G4 F4 | z8 | z2 E4 C2 | F6 F2 | E2 G4 FE | %9
w: Ky- ri-|e e- * lei- *|* * son. Ky- ri- *|e _ _ e-|lei- son,||Ky- ri-|e e-|lei- * * *|
 F2 G2 F4 | G8 || z8 | z8 | E4 D4 | z2 E2 D2 B,2 | (C2 D2) E4 | z8 | B4 G2 B2 | B2 B2 G3 A | %19
w: |son.|||Chri- ste,|Chri- ste e-|lei- * son,||Chri- ste Chri-|ste e- lei- *|
 B2 F2 G2 G2 | F8 | F8 || z8 | z8 | E3 E F4 | z2 G2 A2 B2 | G3 A B4 | A3 G F4 | B3 A G2 =A2 | %29
w: * * son, e-|lei-|son.|||Ky- ri- e|e- lei- *||* * son,|Ky- ri- e e-|
 B6 =A2 | B2 G2 F4 | F2 G4 F2 | F2 F2 C3 D | E6 D2 | E8 |] %35
w: lei- *||son, Ky- ri-|e e- lei- *||son.|
V:3
 E4 G4 | F2 G2 (A2 F2) | G3 A Bc d2- | d3 e f2 f2 | (B3 c) d4 | d2 e2 f4 | e2 B4 c2 | A3 B c2 d2 | %8
w: Ky- ri-|e e- lei- *|son, _ _ _ Ky-|* ri- e e-|lei- * son|* e- lei-|son, Ky- ri-|e _ _ e-|
 B2 e4 dc | d2 e4 d2 | e8 || e4 d4 | z2 e2 d2 B2 | c4 B2 B2 | G2 E2 B4 | A2 B2 EFGA | B2 c2 d2 e2 | %17
w: lei- * * *||son.|Chri- ste,|Chri- ste e-|lei- son, Chri-|ste e- lei-|son, e- lei- * * *||
 e2 d2 B4 | z2 f2 e2 Bc | d2 ed B4 | =A2 B4 A2 | B8 || z2 e4 d2 | B2 e2 (c2 d2) | e4 z4 | z8 | %26
w: * * son,|Chri- ste e- *|lei- * * *||son.|Ky- ri-|e e- lei- *|son,||
 z4 e3 d | c4 d3 e | (f2 d2) e4 | f3 e d2 c2 | (B6 =A2) | B2 e4 d2 | c6 c2 | B8 | B8 |] %35
w: Ky- ri-|e e- *|lei- * son,|Ky- ri- e e-|lei- *|son, Ky- ri-|e e-|lei-|son.|
V:4
 z8 | z8 | z4 z2 B,2- | B,2 B,2 F,2 F,2 | G,3 A, B,4- | B,2 C2 B,4 | z2 G,4 A,2 | F,6 B,2 | %8
w: ||Ky-|* ri- e e-|lei- * *|* * son,|Ky- ri-|e e-|
 G,3 A, B,4- | B,2 E,2 B,,4 | E,8 || z8 | z8 | z8 | z8 | z2 B,2 B,2 B,2 | (G,2 A,2) B,2 C2 | %17
w: lei- * *||son.|||||Chri- ste e-|lei- * son, e-|
 B,4 E,2 G,2 | B,4 E,4 | z2 B,2 G,2 E,2 | F,8 | B,,8 || E,3 E, F,4 | z2 G,2 (A,2 B,2) | E,4 z4 | %25
w: lei- * *|* son,|Chri- ste e-|lei-|son.|Ky- ri- e|e- lei- *|son,|
 z8 | E,3 F, G,2 E,2 | A,2 F,2 B,4 | B,4 C4 | B,6 F,2 | G,2 E,2 F,4 | B,,4 (B,4 | F,3) G, A,2 A,2 | %33
w: |Ky- ri- e e-|lei- * *||son, e-|lei- * *|son, Ky-|* ri- e e-|
 (E,4 B,,4) | E,8 |] %35
w: lei- *|son.|

